!!!!SEGMENT: pl-kk--kk-i-7--068_ratti-lorenzo--o-domine-jesu-christe.krn
!!!cenid: 16xx:907
!!!COM: Ratti, Lorenzo
!!!COM-rismid: pe30004646
!!!CDT: ~1589-1630
!!!CNT: Italian
!!!OTL: O Domine Jesu Christe
!!!PDT:
!!!AGN: Sacred
!!!SMS-siglum: PL-Kk
!!!SMS-shelfmark: Kk.I.7
!!!SMS-shelfwork: 068 W
!!!SMS-variant:
!!!SMS-altvar:
!!!NIFC-rismid: 300258145
!!!URL-scan: http://repozytorium.nifc.pl/skany/pl-kk-nut--i-7
!!!ONB-nifc: UWAGA: C (skan 0063, s.118), A (0149, s.118-119), T(0226, s.114), B(0313, s.112). Następny utwór: O adoranda trinitas
!!!AIN: 1 alto 1 bass 1 soprn 1 tenor
!!!key:
**kern	**text	**kern	**text	**kern	**text	**kern	**text
*part4	*part4	*part3	*part3	*part2	*part2	*part1	*part1
*staff4	*staff4	*staff3	*staff3	*staff2	*staff2	*staff1	*staff1
*Ibass	*	*Itenor	*	*Ialto	*	*Isoprn	*
*I"Bassus.	*	*I"Tenor.	*	*I"Altus.	*	*I"Cantus.	*
*I'B	*	*I'T	*	*I'A	*	*I'S	*
*clefF4	*	*clefC4	*	*clefC3	*	*clefC2	*
*k[]	*	*k[]	*	*k[]	*	*k[]	*
*a:	*	*a:	*	*a:	*	*a:	*
*M2/1	*	*M2/1	*	*M2/1	*	*M2/1	*
*met(c|)	*	*met(c|)	*	*met(c|)	*	*met(c|)	*
=1-	=1-	=1-	=1-	=1-	=1-	=1-	=1-
!	!	!	!	!LO:TX:t=P:problem=kreska pseudotaktowa	!	!LO:TX:t=Na drugiey Liniey Clavis C.	!
!LO:TX:t=P:problem=kreska pseudotaktowa	!	!LO:TX:t=P:problem=kreska pseudotaktowa	!	!LO:TX:t=P:4:problem=middle or right	!	!LO:TX:t=P:problem=kreska pseudotaktowa	!
0AA/	O	0c\	O	0e\	O	0a\	O
=2-	=2-	=2-	=2-	=2-	=2-	=2-	=2-
!LO:TX:a:t=De PaSsione D(omi)ni Post Eleuationem	!	!	!	!	!	!	!
1.E\	Do-	1.B\	Do-	1.e\	Do-	1.g#X\	Do-
*	*	*2\right	*	*2\right	*	*2\right	*
!LO:TX:t=P:problem=kreska pseudotaktowa	!	!	!	!	!	!	!
2AA/	-mi-	2c#X\	-mi-	2e\	-mi-	2a\	-mi-
=3-	=3-	=3-	=3-	=3-	=3-	=3-	=3-
!LO:TX:t=P:problem=kreska pseudotaktowa	!	!LO:TX:t=P:problem=kreska pseudotaktowa	!	!LO:TX:t=P:problem=kreska pseudotaktowa	!	!LO:TX:t=P:problem=kreska pseudotaktowa	!
0AA/	-ne	0c\	-ne	0e\	-ne	0a\	-ne
=4-	=4-	=4-	=4-	=4-	=4-	=4-	=4-
1.D\	Je-	1d\	Je-	1.f\	Je-	1.a\	Je-
!	!	!LO:TX:t=P:problem=kreska pseudotaktowa	!	!	!	!	!
.	.	1A\	-su	.	.	.	.
!LO:TX:t=P:problem=kreska pseudotaktowa	!	!	!	!	!	!	!
2C#X/	-su	.	.	2e\	-su	2a\	-su
=5-	=5-	=5-	=5-	=5-	=5-	=5-	=5-
0D\	Chri-	0A\	Chri-	0d\	Chri-	0f\	Chri-
=6-	=6-	=6-	=6-	=6-	=6-	=6-	=6-
!	!	!LO:TX:t=P:problem=cezura na 2. linii	!	!	!	!	!
!LO:TX:t=P:problem=kreska pseudotaktowa	!	!LO:TX:t=P:problem=kreska pseudotaktowa	!	!LO:TX:t=P:problem=kreska pseudotaktowa	!	!LO:TX:t=P:problem=kreska pseudotaktowa	!
0AA/	-ſte	0A\,	-ſte	0c#X\	-ſte	0e\	-ſte
=7-	=7-	=7-	=7-	=7-	=7-	=7-	=7-
00r	.	1A\	A-	1c\	a-	1e\	a-
!	!	!	!	!LO:TX:t=P:problem=kreska pseudotaktowa	!	!	!
.	.	1d\	-do-	1d\	-do-	1f#X\	-do-
=8-	=8-	=8-	=8-	=8-	=8-	=8-	=8-
.	.	1B\	-ro	1d\	-ro	1g#X\	-ro
!	!	!LO:TX:t=P:problem=kreska pseudotaktowa	!	!LO:TX:t=P:problem=kreska pseudotaktowa	!	!LO:TX:t=P:problem=kreska pseudotaktowa	!
.	.	1A\	te	1c#X\	Te	1a\	Te
=9-	=9-	=9-	=9-	=9-	=9-	=9-	=9-
1D\	A-	2r	.	2r	.	2r	.
!	!	!	!	!	!	!LO:TX:t=P:problem=kreska pseudotaktowa	!
.	.	2A/	A-	2d\	a-	2f#X\	a-
1G\	-do-	1B\	-do-	1d\	-do-	1.g\	-do-
=10-	=10-	=10-	=10-	=10-	=10-	=10-	=10-
!LO:TX:t=P:problem=kreska pseudotaktowa	!	!LO:TX:t=P:problem=kreska pseudotaktowa	!	!LO:TX:t=P:problem=kreska pseudotaktowa	!	!	!
1E\	ro	1c#X\	-ro-	1e\	-ro	.	.
.	.	.	.	.	.	2g\	-ro
!LO:TX:t=P:problem=kreska pseudotaktowa	!	!	!	!	!	!LO:TX:t=P:problem=kreska pseudotaktowa	!
1D\	te	1d\	-te	1A/	Te	1f#X\	Te
=11-	=11-	=11-	=11-	=11-	=11-	=11-	=11-
1.C/	in	2.e\	in	2.c/	in	1.g\	in
!	!	!LO:TX:t=P:problem=kreska pseudotaktowa	!	!	!	!	!
.	.	4d\	.	4d\	.	.	.
.	.	2c\	ſe-	2e\	.	.	.
!	!	!	!	!LO:TX:t=P:problem=kreska pseudotaktowa	!	!	!
2GG/	ſe-	2B\	.	2d\	ſe-	2g\	ſe-
=12-	=12-	=12-	=12-	=12-	=12-	=12-	=12-
*	*	*custos:c	*	*	*	*	*
!	!	!LO:TX:t=P:problem=kreska pseudotaktowa	!	!	!	!	!
1D\	pul-	1d\	-pul-	1f\	-pul-	1a\	-pul-
*	*	*	*	*	*	*custos:a	*
!LO:TX:t=P:problem=kreska pseudotaktowa	!	!	!	!	!	!LO:TX:t=P:problem=kreska pseudotaktowa	!
1AA/	-chro	2c\	-chro	2e\	-chro	1a\	-chro
*	*	*	*	*custos:d	*	*	*
.	.	2.c\	.	1e\	po-	.	.
!	!	!	!	!LO:LB:g=original	!	!LO:LB:g=original	!
=13-	=13-	=13-	=13-	=13-	=13-	=13-	=13-
1.F\	po-	.	.	.	.	1.a\	po-
.	.	4B\	po-	.	.	.	.
.	.	4A/	.	4d\	.	.	.
!	!	!LO:TX:t=P:problem=kreska pseudotaktowa	!	!LO:TX:t=P:problem=kreska pseudotaktowa	!	!	!
.	.	4G/	.	4c/	.	.	.
.	.	2.A/	.	2.d\	.	.	.
*2\right	*	*	*	*	*	*	*
2F\	-si-	.	.	.	.	2a\	-si-
!	!	!	!	!LO:TX:t=P:problem=kreska pseudotaktowa	!	!	!
.	.	4A/	-si-	4d\	-si-	.	.
=14-	=14-	=14-	=14-	=14-	=14-	=14-	=14-
*custos:A	*	*	*	*	*	*	*
!LO:TX:t=P:problem=kreska pseudotaktowa	!	!LO:TX:t=P:problem=kreska pseudotaktowa	!	!LO:TX:t=P:problem=cezura na 4. linii	!	!LO:TX:t=P:problem=kreska pseudotaktowa	!
1E\	-tum	1B\	-tum	2e,\	-tum	1g#X\	-tum
.	.	.	.	1e\	Myr-	.	.
!LO:LB:g=original	!	!	!	!	!	!	!
1A\	Myr-	1c#X\	Myr-	.	.	1a\	Myr-
.	.	.	.	1A/	rha	.	.
=15-	=15-	=15-	=15-	=15-	=15-	=15-	=15-
!LO:TX:t=P:problem=kreska pseudotaktowa	!	!LO:TX:t=P:problem=kreska pseudotaktowa	!	!	!	!LO:TX:t=P:problem=kreska pseudotaktowa	!
1D\	-rha	1d\	-rha	.	.	1f#X\	-rha
!	!	!	!	!LO:TX:t=P:problem=kreska pseudotaktowa	!	!	!
.	.	.	.	2A/	et	.	.
2D/	et	2F#X/	et	1B/	a-	2r	.
1E\	a-	1G/	a-	.	.	2g\	et
=16-	=16-	=16-	=16-	=16-	=16-	=16-	=16-
.	.	.	.	2c#X/	-ro-	2e/	a-
!	!	!LO:TX:t=P:problem=kreska pseudotaktowa	!	!	!	!LO:TX:t=P:problem=kreska pseudotaktowa	!
2F#X\	-ro-	2A/	-ro-	1d\	-ma-	2a\	-ro-
1.G\	-ma-	1.B\	-ma-	.	.	2.g\	-ma-
!	!	!	!	!LO:TX:t=P:problem=kreska pseudotaktowa	!	!	!
.	.	.	.	2d\	-ti-	.	.
.	.	.	.	.	.	4g\	-ti-
=17-	=17-	=17-	=17-	=17-	=17-	=17-	=17-
!	!	!	!	!	!	!LO:TX:t=P:problem=kreska pseudotaktowa	!
.	.	.	.	0e\	-bus	0g\	-bus
!LO:TX:t=P:problem=kreska pseudotaktowa	!	!LO:TX:t=P:problem=kreska pseudotaktowa	!	!	!	!	!
2C/	-ti-	2c\	-ti-	.	.	.	.
1C/	-bus	2c\	-bus	.	.	.	.
.	.	1G/	con-	.	.	.	.
=18-	=18-	=18-	=18-	=18-	=18-	=18-	=18-
2.AA/	con-	.	.	2.c/	con-	2.a\	con-
.	.	2F#X/	-di-	.	.	.	.
4AA/	-di-	.	.	4c/	-di-	4a\	-di-
!LO:TX:t=P:problem=kreska pseudotaktowa	!	!LO:TX:t=P:problem=kreska pseudotaktowa	!	!LO:TX:t=P:problem=kreska pseudotaktowa	!	!LO:TX:t=P:problem=kreska pseudotaktowa	!
1GG/	-tum	1G/	-tu(m)	1B/	-tum	1d/	-tu(m)
=19-	=19-	=19-	=19-	=19-	=19-	=19-	=19-
!	!	!	!	!LO:TX:t=P:problem=kreska pseudotaktowa	!	!	!
1.G\	de-	1.B\	de-	1r	.	0r	.
.	.	.	.	1.e\	de-	.	.
2F\	-pre-	2A/	-pre-	.	.	.	.
=20-	=20-	=20-	=20-	=20-	=20-	=20-	=20-
!	!	!	!	!	!	!LO:TX:t=P:problem=kreska pseudotaktowa	!
0F\	-cor	0A\	-cor	.	.	1r	.
.	.	.	.	2d\	-pre-	.	.
.	.	.	.	1d\	-cor	1.a\	de-
=21-	=21-	=21-	=21-	=21-	=21-	=21-	=21-
!LO:TX:t=P:problem=kreska pseudotaktowa	!	!LO:TX:t=P:problem=kreska pseudotaktowa	!	!LO:TX:t=P:problem=kreska pseudotaktowa	!	!	!
0E\	Te	1e\	Te	1B/	Te	.	.
.	.	.	.	.	.	2g\	-pre-
!	!	!	!	!	!	!LO:TX:t=P:problem=kreska pseudotaktowa	!
.	.	2r	.	2r	.	1g\	-cor
*	*	*	*	*	*ij	*	*
.	.	1e\	de	1g\	de-	.	.
=22-	=22-	=22-	=22-	=22-	=22-	=22-	=22-
0r	.	.	.	.	.	2c/	Te
!	!	!	!	!LO:TX:t=P:problem=kreska pseudotaktowa	!	!	!
*	*	*	*	*	*	*	*ij
.	.	2e\	pre-	2g\	-pre-	1cc\	de-
*	*	*custos:c	*	*	*	*	*
!	!	!LO:TX:t=P:problem=kreska pseudotaktowa	!	!	!	!	!
.	.	0d\	-cor	0f\	-cor	.	.
!	!	!	!	!	!	!LO:TX:t=P:problem=kreska pseudotaktowa	!
.	.	.	.	.	.	2b#X\	-pre-
=23-	=23-	=23-	=23-	=23-	=23-	=23-	=23-
!LO:TX:t=P:problem=kreska pseudotaktowa	!	!	!	!	!	!LO:TX:t=P:problem=♭ w funkcji ♮	!
!	!	!	!	!	!	!LO:N:acc=-	!
1r	.	.	.	.	.	1bn\	-cor
!	!	!LO:LB:g=original	!	!	!	!	!
!	!	!LO:TX:t=P:problem=kreska pseudotaktowa	!	!LO:TX:t=P:problem=kreska pseudotaktowa	!	!LO:TX:t=P:problem=kreska pseudotaktowa	!
2r	.	1c\	Te	1e\	Te	1g\	Te
2C/	Vt	.	.	.	.	.	.
=24-	=24-	=24-	=24-	=24-	=24-	=24-	=24-
*	*	*	*	*	*	*custos:cc	*
!	!	!	!	!	!	!LO:TX:t=P:problem=kreska pseudotaktowa	!
2E\	Tu-	1c\	Vt	1r	.	0r	.
2F#X\	a	.	.	.	.	.	.
!LO:TX:t=P:problem=kreska pseudotaktowa	!	!	!	!	!	!	!
1G\	Mors	1B\	Tu-	2r	.	.	.
*	*	*	*	*	*Xij	*	*Xij
*	*	*	*	*custos:e	*	*	*
!	!	!	!	!LO:TX:t=P:problem=kreska pseudotaktowa	!	!	!
.	.	.	.	2d\	Vt	.	.
!	!	!	!	!LO:PB:g=original	!	!LO:LB:g=original	!
=25-	=25-	=25-	=25-	=25-	=25-	=25-	=25-
!	!	!LO:TX:t=P:problem=kreska pseudotaktowa	!	!	!	!LO:TX:t=P:problem=kreska pseudotaktowa	!
2r	.	1A\	-a	2e\	Tu-	1cc\	Vt
*custos:BB	*	*	*	*	*	*	*
!	!	!	!	!LO:TX:t=P:problem=kreska pseudotaktowa	!	!	!
2AA/	Vt	.	.	2f#X\	-a	.	.
!LO:LB:g=original	!	!LO:TX:t=P:problem=kreska pseudotaktowa	!	!	!	!	!
2BB/	Tu-	1G/	Mors	(1.g\	Mors	1b\	Tu-
2C#X/	-a	.	.	.	.	.	.
=26-	=26-	=26-	=26-	=26-	=26-	=26-	=26-
!LO:TX:t=P:problem=kreska pseudotaktowa	!	!	!	!	!	!LO:TX:t=P:problem=kreska pseudotaktowa	!
1D\	Mors	2r	.	.	.	1a\	-a
!	!	!	!	!LO:TX:t=P:problem=kreska pseudotaktowa	!	!	!
.	.	1d\	ſit	2f\)	.	.	.
0r	.	.	.	2e\	ſit	2g\	Mors
.	.	1c\	Vi-	4A/	Vi-	2a\	ſit
.	.	.	.	4A/	-ta	.	.
=27-	=27-	=27-	=27-	=27-	=27-	=27-	=27-
.	.	.	.	2d\	Sit	2f\	Vi-
!	!	!LO:TX:t=P:problem=kreska pseudotaktowa	!	!	!	!	!
.	.	2B-X\	-ta	1d\	Vi-	2g\	-ta
!	!	!	!	!	!	!LO:TX:t=P:problem=kreska pseudotaktowa	!
2r	.	1A\	me-	.	.	1e\	me-
!	!	!	!	!LO:TX:t=P:problem=kreska pseudotaktowa	!	!	!
1A\	Sit	.	.	2c#X/	-ta	.	.
=28-	=28-	=28-	=28-	=28-	=28-	=28-	=28-
!	!	!LO:TX:t=P:problem=kreska pseudotaktowa	!	!	!	!LO:TX:t=P:problem=cezura na 3. linii	!
.	.	1D/	-a	2d\	me-	2f#X,\	-a
!	!	!	!	!	!	!LO:TX:t=P:problem=kreska pseudotaktowa	!
1G\	Vi-	.	.	2B/	-a	2g\	Sit
.	.	4r	.	2c#X/	Sit	1a\	Vi-
.	.	4A/	Sit	.	.	.	.
!LO:TX:t=P:problem=kreska pseudotaktowa	!	!	!	!LO:TX:t=P:problem=kreska pseudotaktowa	!	!	!
2F\	-ta	1d\	Vi-	2d\	Vi-	.	.
=29-	=29-	=29-	=29-	=29-	=29-	=29-	=29-
0E\	me-	.	.	0e\	-ta	2g\	-ta
!	!	!LO:TX:t=P:problem=kreska pseudotaktowa	!	!	!	!	!
.	.	2c\	ta	.	.	1a\	.
.	.	1B\	me-	.	.	.	.
.	.	.	.	.	.	2g#X\	me-
=30-	=30-	=30-	=30-	=30-	=30-	=30-	=30-
00AA/	-a	00c#X\	-a.	00e\;;	mea.	00a\	-a.
==	==	==	==	==	==	==	==
*-	*-	*-	*-	*-	*-	*-	*-
!!!system-decoration: [(s1,s2,s3,s4)]
!!!RDF**kern: > = above
!!!RDF**kern: < = below
!!!EED: Leszek Kubiak
!!!EST: 2021-03-18
!!!ENC: Kamil Watkowski
!!!END: 2021-03-03
